X:70
T: Charlie Reynolds'
S: Brian Conway
Z: B.Black
R: jig
M: 6/8
L: 1/8
K: G
dB |: AcA AGA | BGE G3 | ABA GBd | ege edB |
AcA AGA | BGE G3 | ABA GBd | egd edB :|
GBd g3 | gba g3 | GBd g3 | e/2f/2g edB |
GBd g3 | gba g3 | aba g2 e | e/2f/2g edB :|
